assets/warrantyMarkMob.svg

<svg width="85" height="85" viewBox="0 0 85 85" fill="none" xmlns="http://www.w3.org/2000/svg">
<path d="M85 62.7666H0V1.34082H85V62.7666Z" fill="#FFD98B"/>
<path d="M85 1.34131H42.5V62.7671H85V1.34131Z" fill="#FFD581"/>
<path d="M67.4023 53.6357H17.5977V51.1455C17.5977 48.857 15.7358 46.9951 13.4473 46.9951H10.957V18.7725H13.4473C15.7358 18.7725 17.5977 16.9106 17.5977 14.6221V12.1318H67.4023V14.6221C67.4023 16.9106 69.2642 18.7725 71.5527 18.7725H74.043V46.9951H71.5527C69.2642 46.9951 67.4023 48.857 67.4023 51.1455V53.6357ZM22.233 48.6553H62.7669C63.6286 45.6187 66.0257 43.2216 69.0623 42.3598V23.4078C66.0257 22.5462 63.6286 20.1489 62.7669 17.1123H22.233C21.3712 20.1489 18.9741 22.546 15.9375 23.4078V42.3598C18.9741 43.2214 21.3712 45.6187 22.233 48.6553Z" fill="#FF9A00"/>
<path d="M49.0708 29.6157C45.4477 26.1171 39.5521 26.1171 35.929 29.6157L32.4692 26.0331C38.0002 20.6921 46.9994 20.6921 52.5306 26.0331L49.0708 29.6157Z" fill="#FFF5CC"/>
<path d="M39.0137 33.7148H21.25V38.6953H39.0137V33.7148Z" fill="#FFF5CC"/>
<path d="M67.4023 14.6221V12.1318H42.5V17.1123H62.767C63.6288 20.1489 66.0259 22.546 69.0625 23.4078V42.3598C66.0259 43.2214 63.6288 45.6187 62.767 48.6553H42.5V53.6357H67.4023V51.1455C67.4023 48.857 69.2642 46.9951 71.5527 46.9951H74.043V18.7725H71.5527C69.2642 18.7725 67.4023 16.9106 67.4023 14.6221Z" fill="#E67500"/>
<path d="M49.0709 29.6153L52.5307 26.0326C49.7652 23.3621 46.1326 22.0269 42.5 22.0269V26.9912C44.8797 26.9914 47.2593 27.866 49.0709 29.6153Z" fill="#FFDAAA"/>
<path d="M35.3397 83.6585L31.1472 76.1121L23.6006 71.9195L41.7828 53.7373L53.5219 65.4763L35.3397 83.6585Z" fill="#FF513F"/>
<path d="M70.2467 83.6588L52.0645 65.4768L63.8036 53.7378L81.9858 71.92L74.4392 76.1126L70.2467 83.6588Z" fill="#BF1200"/>
<path d="M52.793 66.917C44.0966 66.917 37.0215 59.8419 37.0215 51.1455C37.0215 42.4491 44.0966 35.374 52.793 35.374C61.4894 35.374 68.5645 42.4491 68.5645 51.1455C68.5645 59.8419 61.4894 66.917 52.793 66.917Z" fill="#FFD2CD"/>
<path d="M52.793 35.374V66.917C61.4894 66.917 68.5645 59.8419 68.5645 51.1455C68.5645 42.4491 61.4894 35.374 52.793 35.374Z" fill="#FFB2AA"/>
<path d="M52.793 58.6163C48.6736 58.6163 45.3223 55.2649 45.3223 51.1455C45.3223 47.0262 48.6736 43.6748 52.793 43.6748C56.9123 43.6748 60.2637 47.0262 60.2637 51.1455C60.2637 55.2649 56.9123 58.6163 52.793 58.6163ZM52.793 48.6553C51.4199 48.6553 50.3027 49.7724 50.3027 51.1455C50.3027 52.5186 51.4199 53.6358 52.793 53.6358C54.1661 53.6358 55.2832 52.5186 55.2832 51.1455C55.2832 49.7724 54.1661 48.6553 52.793 48.6553Z" fill="#FF513F"/>
<path d="M55.2832 51.1455C55.2832 52.5186 54.1661 53.6358 52.793 53.6358V58.6163C56.9123 58.6163 60.2637 55.2649 60.2637 51.1455C60.2637 47.0262 56.9123 43.6748 52.793 43.6748V48.6553C54.1661 48.6553 55.2832 49.7722 55.2832 51.1455Z" fill="#BF1200"/>
</svg>

<svg xmlns="http://www.w3.org/2000/svg" width="85" height="85" fill="none" xmlns:v="https://vecta.io/nano"><path d="M85 62.767H0V1.34h85v61.426z" fill="#ffd98b"/><path d="M85 1.34H42.5v61.426H85V1.34z" fill="#ffd581"/><path d="M67.402 53.636H17.598v-2.5c0-2.288-1.862-4.15-4.15-4.15h-2.5V18.773h2.5c2.288 0 4.15-1.862 4.15-4.15v-2.5h49.805v2.5c0 2.288 1.862 4.15 4.15 4.15h2.5v28.223h-2.5c-2.288 0-4.15 1.862-4.15 4.15v2.5zm-45.17-4.98h40.534a9.17 9.17 0 0 1 6.295-6.295V23.408a9.17 9.17 0 0 1-6.295-6.296H22.233a9.17 9.17 0 0 1-6.296 6.296V42.36a9.17 9.17 0 0 1 6.296 6.295z" fill="#ff9a00"/><path d="M49.07 29.616c-3.623-3.5-9.52-3.5-13.142 0l-3.46-3.583c5.53-5.34 14.53-5.34 20.06 0l-3.46 3.583zm-10.056 4.1H21.25v4.98h17.764v-4.98z" fill="#fff5cc"/><path d="M67.402 14.622v-2.5H42.5v4.98h20.267a9.17 9.17 0 0 0 6.295 6.296V42.36a9.17 9.17 0 0 0-6.295 6.295H42.5v4.98h24.902v-2.5c0-2.288 1.862-4.15 4.15-4.15h2.5V18.773h-2.5c-2.288 0-4.15-1.862-4.15-4.15z" fill="#e67500"/><path d="M49.07 29.615l3.46-3.583c-2.766-2.67-6.398-4.006-10.03-4.006v4.964c2.38 0 4.76.875 6.57 2.624z" fill="#ffdaaa"/><path d="M35.34 83.66l-4.192-7.546L23.6 71.92l18.182-18.182 11.74 11.74L35.34 83.66z" fill="#ff513f"/><path d="M70.247 83.66L52.065 65.477l11.74-11.74L81.986 71.92l-7.547 4.193-4.192 7.546z" fill="#bf1200"/><path d="M52.793 66.917c-8.696 0-15.77-7.075-15.77-15.772s7.075-15.77 15.77-15.77 15.77 7.075 15.77 15.77-7.075 15.772-15.77 15.772z" fill="#ffd2cd"/><path d="M52.793 35.374v31.543c8.696 0 15.77-7.075 15.77-15.772s-7.075-15.77-15.77-15.77z" fill="#ffb2aa"/><path d="M52.793 58.616a7.48 7.48 0 0 1-7.471-7.471 7.48 7.48 0 0 1 7.471-7.471 7.48 7.48 0 0 1 7.471 7.471 7.48 7.48 0 0 1-7.471 7.471zm0-9.96c-1.373 0-2.5 1.117-2.5 2.5s1.117 2.5 2.5 2.5 2.5-1.117 2.5-2.5-1.117-2.5-2.5-2.5z" fill="#ff513f"/><path d="M55.283 51.146c0 1.373-1.117 2.5-2.5 2.5v4.98a7.48 7.48 0 0 0 7.471-7.471 7.48 7.48 0 0 0-7.471-7.471v4.98c1.373 0 2.5 1.117 2.5 2.5z" fill="#bf1200"/></svg>
